X:1
T:James Gibb editions
T:Le doulx baisir - Crecquillon
T:#
%%score [ 1 2 3 4 ]
L:1/8
Q:1/4=130
M:4/2
K:F
V:1 treble nm="Alto" snm="A"
V:2 treble-8 nm="Tenor I" snm="T I"
V:3 treble-8 nm="Tenor II" snm="T II"
V:4 bass nm="Bass" snm="B"
V:1
"^Le doulx baisir""^Thomas Crecquillon\n(1505-57)" z8 z4 G4 | c4 c4 d4 A4 | B8 c8 | A8 (B6 A2 | %4
w: Le|doulx bai- sir que|ieulx au|de par\- *|
 G4) (G4 A2 F2 A4- | A2 G2 G8 ^F4 | G8) A8 | G4 B4 A4 G4 | A8 B4 (d4- | d2 c2 c8) B4 | c8 c4 c4 | %11
w: * tir * * *||* me|faíct au cueur gri-|fue dou- leur|* * * sen-|tir puis en|
 B4 d4 c6 B2 | A4 A4 (B6 A2 | G2 F2) (G6 F2 F4- | F4 E4) (F6 E2 | D2 B,2) B6 G2 A4 | B8 G4 c4 | %17
w: a- pres ie pen-|say en moy *|* * mes, * *|* * mes *|* * qui te faíct|ce es- se|
 c4 B4 (c6 B2) | A8 B8 | z4 G4 c8 | d8 B4 B4 | c8 A8 | (B6 A2 G4) G4 | (A2 F2) A8 G4- | G4 ^F4 G8 | %25
w: ce que tu *|ay- mes|Cer- tes|ou- y, cer-|tes ou-|y * * a-|mour * nen peult|* men- tir|
 z4 c4 A8 | B8 G4 (G4 | A2 F2) A6 G2 G4- | G4 ^F4 G8- | G16 |] %30
w: Cer- tes|ou- y a\-|* * mour nen peult|* men- tir.||
V:2
 d8 g4 g4 | a4 e4 f8 | g8 e8 | (f6 e2 e4) (d4- | e2 c2 e6 d2 d4- | d4 c4 d8) | e8 d4 f4 | %7
w: Le doulx bai-|sir que ieulx|au de|par\- * * tir|||me faíct au|
 e4 d4 e8 | f4 (a6 g2 g4- | g4) ^f4 g8 | g4 g4 f4 a4 | g6 f2 e4 e4 | (f6 e2 d2 c2) (d4- | %13
w: cueur gri- fue|dou- leur * *|* sen- tir|puis en a- pres|ie pen- say en|moy * * * mes,|
 d2 c2 c8 =B4) | (c6 B2 A2 F2) f4- | f2 d2 e4 f8 | d4 g4 g4 f4 | (g6 f2) e8 | f8 z4 d4 | g8 a8 | %20
w: |mes * * * qui|* te faíct ce|es- se ce que|tu * ay-|mes Cer-|tes ou-|
 f4 f4 g8 | e8 (f6 e2 | d4) d4 (e2 c2) e4- | e4 d8 c4 | d8 z4 g4 | e8 f8 | d4 (d4 e2 c2) e4- | %27
w: y, cer- tes|ou- y *|* a- mour * nen|* peult men-|tir Cer-|tes ou-|y a\- * * mour|
 e2 d2 d8 c4 | d16- | d16 |] %30
w: * nen peult men-|tir.||
V:3
 z16 | z16 | z4 G4 c4 c4 | d8 z4 G4 | (c6 B2 A4) F4 | B4 G4 (A8 | G8) z4 c4- | c4 B4 c8 | %8
w: ||Le doulx bai-|sir que|ieulx * * au|de par- tir|* me|* faíct au|
 F8 z4 B4 | c4 c4 d4 d4 | c8 z4 f4 | d4 B4 c4 c4 | (d6 c2 B4) G4 | (c6 B2 A4) F4 | G8 F8 | %15
w: cueur gri-|fue dou- leur sen-|tir puis|en a- pres ie|pen\- * * say|en * * moy|mes, mes|
 z4 B4 c4 c4 | B8 z4 c4 | e4 d4 c4 c4 | (d6 c2 B8 | c8) F8 | z8 z4 G4 | c8 d8 | G8 z4 c4 | %23
w: qui te faíct|ce es-|se ce que tu|ay\- * *|* mes|Cer-|tes ou-|y a-|
 A4 F4 B4 G4 | (A8 G4) G4 | c8 d8 | F8 z4 c4 | A4 F4 (B4 G4) | A8 G8- | G16 |] %30
w: mour nen peult men-|tir * Cer-|tes ou-|y a-|mour nen peult *|men- tir.||
V:4
 z16 | z8 z4 D,4 | G,4 G,4 A,8 | z4 D,4 (G,6 F,2) | E,4 C,4 F,4 D,4 | (!courtesy!=E,8 D,8) | %6
w: |Le|doulx bai- sir|que ieulx *|* au de par-|tir *|
 z4 G,8 F,4 | G,8 C,8 | z4 F,4 G,4 G,4 | A,4 A,4 G,8 | z4 C4 A,4 F,4 | G,4 G,4 (A,6 G,2 | %12
w: me faíct|au cueur|gri- fue dou-|leur sen- tir|puis en a-|pres ie pen\- *|
 F,4) D,4 (G,6 F,2 | E,4) C,4 D,8 | C,8 z4 F,4 | G,4 G,4 F,8 | z4 G,4 B,4 A,4 | G,4 G,4 (A,6 G,2 | %18
w: * say en *|* moy mes,|mes qui|te faíct ce|es- se ce|que tu ay\- *|
 F,8 G,8) | C,8 z8 | z4 D,4 G,8 | A,8 D,8 | z4 G,4 E,4 C,4 | F,4 D,4 (E,8 | D,4) D,4 G,8 | %25
w: |mes|Cer- tes|ou- y,|cer- tes ou-|y a- mour,|* Cer- tes|
 A,8 D,8 | z4 G,4 E,4 C,4 | F,4 D,4 E,8 | D,8 G,8- | G,16 |] %30
w: ou- y|a- mour nen|peult men- tir,|men- tir.||

